src/assets/icons/4♣.svg

<svg xmlns="http://www.w3.org/2000/svg" xmlns:xlink="http://www.w3.org/1999/xlink" width="240" height="336" viewBox="-120 -168 240 336" preserveAspectRatio="none" xmlns:v="https://vecta.io/nano"><symbol id="A" viewBox="-600 -600 1200 1200" preserveAspectRatio="xMinYMid"><path d="M30 150c5 235 55 250 100 350h-260c45-100 95-115 100-350a10 10 0 0 0-20 0 210 210 0 1 1-74-201 10 10 0 0 0 14-14 230 230 0 1 1 220 0 10 10 0 0 0 14 14 210 210 0 1 1-74 201 10 10 0 0 0-20 0z"/></symbol><symbol id="B" viewBox="-500 -500 1000 1000" preserveAspectRatio="xMinYMid"><path d="M50 460h200m-100 0v-920l-450 635v25h570" stroke="#000" stroke-width="80" stroke-linecap="square" stroke-miterlimit="1.5" fill="none"/></symbol><rect width="239" height="335" x="-119.5" y="-167.5" rx="12" fill="#fff" stroke="#000"/><use xlink:href="#B" height="32" width="32" x="-114.4" y="-156"/><use xlink:href="#A" height="26.769" width="26.769" x="-111.784" y="-119"/><use xlink:href="#A" height="70" width="70" x="-87.501" y="-135.588"/><use xlink:href="#A" height="70" width="70" x="17.501" y="-135.588"/><g transform="rotate(180)"><use xlink:href="#B" height="32" width="32" x="-114.4" y="-156"/><use xlink:href="#A" height="26.769" width="26.769" x="-111.784" y="-119"/><use xlink:href="#A" height="70" width="70" x="-87.501" y="-135.588"/><use xlink:href="#A" height="70" width="70" x="17.501" y="-135.588"/></g></svg>

<?xml version="1.0" encoding="UTF-8" standalone="no"?>
<svg xmlns="http://www.w3.org/2000/svg" xmlns:xlink="http://www.w3.org/1999/xlink" width="2.5in" height="3.5in" viewBox="-120 -168 240 336" preserveAspectRatio="none" class="card" face="4C">
   <symbol id="C" viewBox="-600 -600 1200 1200" preserveAspectRatio="xMinYMid">
      <path d="M30 150C35 385 85 400 130 500L-130 500C-85 400 -35 385 -30 150A10 10 0 0 0 -50 150A210 210 0 1 1 -124 -51A10 10 0 0 0 -110 -65A230 230 0 1 1 110 -65A10 10 0 0 0 124 -51A210 210 0 1 1 50 150A10 10 0 0 0 30 150Z" fill="black"/>
   </symbol>
   <symbol id="C4" viewBox="-500 -500 1000 1000" preserveAspectRatio="xMinYMid">
      <path d="M50 460L250 460M150 460L150 -460L-300 175L-300 200L270 200" stroke="black" stroke-width="80" stroke-linecap="square" stroke-miterlimit="1.5" fill="none"/>
   </symbol>
   <rect width="239" height="335" x="-119.5" y="-167.5" rx="12" ry="12" fill="white" stroke="black"/>
   <use xlink:href="#C4" height="32" width="32" x="-114.4" y="-156"/>
   <use xlink:href="#C" height="26.769" width="26.769" x="-111.784" y="-119"/>
   <use xlink:href="#C" height="70" width="70" x="-87.501" y="-135.588"/>
   <use xlink:href="#C" height="70" width="70" x="17.501" y="-135.588"/>
   <g transform="rotate(180)">
      <use xlink:href="#C4" height="32" width="32" x="-114.4" y="-156"/>
      <use xlink:href="#C" height="26.769" width="26.769" x="-111.784" y="-119"/>
      <use xlink:href="#C" height="70" width="70" x="-87.501" y="-135.588"/>
      <use xlink:href="#C" height="70" width="70" x="17.501" y="-135.588"/>
   </g>
</svg>
